X:1
T:Title
L:1/8
Q:1/4=60
M:6/8
K:F
V:1 treble nm="Church Organ, Staff"
V:1
 A>BA G2 c | F2 G A2 B | c2 c d2 c | B>AB A3 | A2 d c2 A | _A>=A=B A2 A | G2 A c>cd | c3 c2 A | %8
w: By~F.~Adlam * * * *||||||||
 B3 B2 A | B3 B2 A | A>Bc AFG | G3 G2 A | B3 B2 A | B3 B2 A | A>Bc AFG | F3 .F3 |] %16
w: ||||||||

